web/packages/design/src/ResourceIcon/assets/g2.svg

<svg width="72" height="72" viewBox="0 0 72 72" fill="none" xmlns="http://www.w3.org/2000/svg">
<g clip-path="url(#clip0_15941_7413)">
<path d="M36 72.0005C55.8822 72.0005 72 55.8827 72 36.0005C72 16.1182 55.8822 0.000488281 36 0.000488281C16.1177 0.000488281 0 16.1182 0 36.0005C0 55.8827 16.1177 72.0005 36 72.0005Z" fill="#FF492C"/>
<path d="M24.6097 36.0006C24.6097 42.4806 29.8873 47.7582 36.3673 47.7582C39.1803 47.7578 41.8993 46.7458 44.0281 44.907L48.4777 52.6254C44.9641 55.1968 40.7213 56.5791 36.3673 56.571C25.0057 56.571 15.7969 47.3622 15.7969 36.0006C15.7969 24.639 25.0057 15.4302 36.3673 15.4302C37.7186 15.43 39.0667 15.5626 40.3921 15.8262L36.3673 24.243C29.8873 24.243 24.6097 29.5206 24.6097 36.0006Z" fill="white"/>
<path d="M45.4325 27.5764H51.5813V30.1252H42.2789V29.6932C42.2789 28.1164 42.5885 26.8132 43.2221 25.7764C43.8557 24.7396 44.9501 23.8252 46.5269 23.026L47.2541 22.6732C48.5357 22.0252 48.8669 21.4708 48.8669 20.8012C48.8669 20.002 48.1829 19.426 47.0669 19.426C45.7493 19.426 44.7485 20.11 44.0573 21.5068L42.2789 19.7212C42.6677 18.886 43.2941 18.2164 44.1365 17.698C44.9725 17.1649 45.9458 16.8871 46.9373 16.8988C48.2189 16.8988 49.3133 17.2372 50.2421 17.9212C51.1709 18.6052 51.6389 19.5556 51.6389 20.758C51.6389 22.6732 50.5589 23.8468 48.5357 24.8836L47.4053 25.4596C46.1957 26.0716 45.5981 26.6116 45.4325 27.5764Z" fill="white"/>
<path d="M40.5797 33.0628H50.7605L55.8509 41.8756L50.7605 50.6956L45.6701 41.8756H35.4893L40.5797 33.0628Z" fill="white"/>
</g>
<defs>
<clipPath id="clip0_15941_7413">
<rect width="72" height="72" fill="white" transform="translate(0 0.000488281)"/>
</clipPath>
</defs>
</svg>

<svg xmlns="http://www.w3.org/2000/svg" width="72" height="72" fill="none" viewBox="0 0 72 72"><g clip-path="url(#a)"><path fill="#ff492c" d="M36 72c19.882 0 36-16.117 36-36S55.882 0 36 0 0 16.118 0 36s16.118 36 36 36"/><path fill="#fff" d="M24.61 36c0 6.48 5.277 11.758 11.757 11.758a11.72 11.72 0 0 0 7.661-2.851l4.45 7.718a20.44 20.44 0 0 1-12.11 3.946c-11.362 0-20.571-9.209-20.571-20.57s9.209-20.57 20.57-20.57c1.352-.001 2.7.132 4.025.395l-4.025 8.417c-6.48 0-11.757 5.278-11.757 11.758"/><path fill="#fff" d="M45.433 27.576h6.148v2.55H42.28v-.433c0-1.577.31-2.88.943-3.917.634-1.036 1.728-1.95 3.305-2.75l.727-.353c1.282-.648 1.613-1.202 1.613-1.872 0-.799-.684-1.375-1.8-1.375-1.318 0-2.318.684-3.01 2.08l-1.778-1.785c.389-.835 1.015-1.505 1.857-2.023a5.1 5.1 0 0 1 2.801-.8c1.282 0 2.376.34 3.305 1.023.929.684 1.397 1.635 1.397 2.837 0 1.915-1.08 3.089-3.103 4.126l-1.13.576c-1.21.612-1.808 1.152-1.974 2.116m-4.853 5.487h10.18l5.09 8.813-5.09 8.82-5.09-8.82H35.49z"/></g><defs><clipPath id="a"><path fill="#fff" d="M0 0h72v72H0z"/></clipPath></defs></svg>
